!!!OTL: 566. Klaglied eines alten Burschen.
!!!ARE: Europa, Mitteleuropa, Deutschland
!!!SCT: B0566
!!!TXL: @@DE, (@@LAT)
!!!YEM: Copyright 1995, estate of Helmut Schaffrath.
**kern	**text
*ICvox	*
*Ivox	*
*clefG2	*
!! Mixed meters:  3/4; 4/4
*M3/4	*
*k[b-]	*
*F:	*
!LO:TX:a:t=Mäßig.	!
{8f	Was
=1	=1
8f	fang'
8a	ich
4.cc	ar-
8a	-mer
=2	=2
8.a	Teu-
16g	-fel
4.g}	an?
{8g	Die
=3	=3
8g	Gel-
8dd	-der
4.cc	ſind
8b-	ver-
=4	=4
4b-	-ʒeh-
4a	-ret,
8r}	.
{8f	mein
=5	=5
8f	Hab'
8a	und
4.cc	Gut
8a	iſt
=6	=6
8.a	all's
16g	ver-
4.g}	-than,
{8g	der
=7	=7
8g	Beu-
8dd	-tel
4.cc	aus-
8b-	-ge-
=8	=8
4b-	-lee-
4a	-ret
8r}	.
{8cc	und
=9	=9
8.cc	da-
16cc	-raus
8ffL	folgt
8ccJ	.
8aL	der
8fJ	.
=10	=10
8.cc	har-
16cc	-te
4.cc}	Schluß,
{8cc	daß
=11	=11
8.cc	ich
16cc	aus-
8ffL	.
8ccJ	.
8aL	.
8fJ	.
=12	=12
8.cc	-wan-
16cc	-dern
4cc	muß.
8r}	.
=||	=||
{8cc	O
=13	=13
*M4/4	*
*met(c)	*
8cc	je-
4.cc	-rum,
8a	je-
4.dd	-rum,
8cc	je-
=14	=14
4cc	-rum,
4b-	.
4r	.
8r}	o
{8b-	quae
=15	=15
4.b-	mu-
8g	-ta-
4.cc	-tio
8e	re-
=16	=16
4g	-rum!
4f	.
4.r}	.
==	==
!!!AGN: Studenten -, Burschenschafts -, Wander - Lied
!!!GTL: Studentenlieder
!!!ONB: ESAC (Essen Associative Code) Database: BOEHME
!!!AMT: irregular
!!!AIN: vox
!!!EED: Helmut Schaffrath
!!!EEV: 1.0
!!Alte Weiſe.
!!@@COMMENT:"Der Text kommt handſchriftlich ſchon 1763 vor, kurʒe Ʒeit darauf in einem Jenaer Einʒel-
!!druck. (Friedländer, CB. S. 160. ) Hier nach dem Heidelberger Commersbuch v. 1824; ʒwei häßliche
!!Strophen mehr im Anhange ʒum Lahrer Commersbuche. - Aus dieſem ältern Studentenlied iſt der
!!Refrain übertragen auf: "O alte Burſchenherrlichkeit" (ſ. folgende Nummer). Eine ältere Mel. daʒu
!!giebt das "Liederb. für deutſche Künſtler" 1633. (Abdr. bei Friedländer a. o. O. ) Aus ihr entſtand
!!die unter Nr. 567 folgende Singweiſe. Jm Lahrer Commersbuche hat der Tert noch folgende
!!Vorſatʒſtrophe: "Friſch und frei in Saus und Braus trallala, trallala! ʒiehn wir in die Welt
!!hinaus, trallala juchhe! Luſtig hier und luſtig dort! iſt des Burſchen Loſungswort. Juchheidi" rc.
!!2. Studio auf einer Reiſ' rc. - Das ſcheint die etwas ältere Faſſung ʒu ſein."
!!@@END:
!!!URL-scan: https://archive.org/details/BoehmeVtLieder1895/page/n449/mode/2up
!!!ENC: Anna Maria Matuszewska
!!!EEV: 2024/12/07
*-	*-
